X: 10333
T: DEAR VALE WHOSE GREEN RETREATS
O: From the Opera of "The Mariners."
Q: "Moderately slow."
%R: air, waltz
B: W. Hamilton "Universal Tune-Book" Vol. 1 Glasgow 1844 p.33 #3
S: http://imslp.org/wiki/Hamilton's_Universal_Tune-Book_(Various)
Z: 2016 John Chambers <jc:trillian.mit.edu>
M: 3/4
L: 1/8
K: G
% - - - - - - - - - - - - - - - - - - - - - - - - -
|: d2 |\
B3 c (AB) | G2 z2 g2 | (fB) A3 e | d2 z2 zd |\
B3 c (AB) | G3 A (B^c) | d3 d e>f | d2 z2 zd |\
A3 c (Be) | (d2 c2) A2 | B3 G (ce) | A4 d2 |\
(B3 B g2) | Hf3 B (Ae) | Hd>G B>c A>F | G2 z2 :|
% - - - - - - - - - - - - - - - - - - - - - - - - -

%%sep 1 1 500
%%sep 1 1 500

